!!!COM: Gustav Mahler
!!!CNT: Deutsch
!!!TXO: Deutsch
!!!OTL: "Trost im Unglu2ck"
!!!LYR: Des Knaben Wunderhorn
!!!OPR: Des Knaben Wunderhorn, Part 1
!!!ENC: O'Neal Douglas
!!!YOR: CD Sheet Music: Late Romantic German Lieder
!!!YOR: CD Sheet Music, LLC, 2001
!!!ODT: 1892/
!!NB: Vocal melody and text encoded.
**kern	**text
*staff1	*staff1
*clefG2	*
*k[f#c#g#]	*
*M2/4	*
*MM80	*
8r	.
=1	=1
2r	.
=2	=2
2r	.
=3	=3
2r	.
=4	=4
2r	.
=5	=5
2r	.
=6	=6
2r	.
=7	=7
2r	.
=8	=8
2r	.
=9	=9
2r	.
=10	=10
2r	.
=11	=11
2r	.
=12	=12
4r	.
8r	.
{8c#	{Wohl-
=13	=13
8.f#	-an!
16a	Die
8cc#	Zeit
8ff#	ist
=14	=14
8cc#	kom-
8a}	-men!}
8r	.
{8a	{Mein
=15	=15
6dd	Pferd,
12dd	das
(12dd	muss
12cc#)	|
12dd	ge-
=16	=16
8.ee	-sat-
16cc#	-telt
8a}	sein!}
{8a	{Ich
=17	=17
8.d	hab'
16f#	mir's
(16a	vor-
16f#)	|
(16a	-ge-
16dd)	|
=18	=18
(8.ff#	-nom-
16ee)	|
8dd}	-men,}
8r	.
=19	=19
4r	.
8r	.
{8dd	{ge-
=20	=20
12ff#	-rit-
12dd	|
12b	-ten
6f#	muss
12f#	es
=21	=21
8b}	sein!}
8r	.
4r	.
=22	=22
2r	.
=23	=23
2r	.
=24	=24
{12e	{Geh'
12e	du
12gn	nur
8b	hin!
8r	.
=25	=25
12e	Ich
12e	hab'
12gn	mein
12b}	Theil!}
12r	.
{12c#	{Ich
=26	=26
6f#	lieb'
12a	dich
6cc#	nur
12cc#	aus
=27	=27
(12cc#	Nar-
12ff#)	|
12cc#	-re-
8cc#}	-theil!}
{8ee	{Ohn'
=28	=28
8.dd#	dich
16cc#	kann
8a	ich
8cc#	wohl
=29	=29
8b	le-
4ee	-ben,
8b	ja
=30	=30
8b	le-
4ff#}	-ben!}
8r	.
=31	=31
2r	.
=32	=32
2r	.
=33	=33
4r	.
8r	.
{8cc#	{Ohn'
=34	=34
8.ee	dich
16cc#	kann
(16ee	ich
16dd)	|
(16cc#	wohl
16b)	|
=35	=35
4cc#	sein!
8r	.
8c#	So
=36	=36
8.f#	setz
16a	ich
8cc#	mich
8ff#	auf's
=37	=37
8cc#	Pferd-
8a}	-chen}
8r	.
{8a	{und
=38	=38
8.dd	trink'
16dd	ein
(12dd	Gla2s-
12cc#)	|
12dd	-chen
=39	=39
8.ee	ku2h-
16cc#	-len
8a	Wein,
8a	und
=40	=40
8.d	schwo2r's
16f#	bei
(16a	mei-
16f#)	|
(16a	-nem
16dd)	|
=41	=41
(8.ff#	Ba2rt-
16ee)	|
8dd}	-chen:}
8r	.
=42	=42
2r	.
=43	=43
4r	.
8r	.
{8f#	{dir
=44	=44
8g#	e-
8a	-wig
8.b	treu
16cc#	zu
=45	=45
8a}	sein.}
8r	.
4r	.
=46	=46
2r	.
=47	=47
2r	.
=48	=48
2r	.
=49	=49
2r	.
=50	=50
2r	.
=51	=51
2r	.
=52	=52
2r	.
=53	=53
4r	.
8r	.
{8b	{Du
=54	=54
8.a	glaubst,
16g#	du
8a	bist
8b	der
=55	=55
4ccn	Scho2n-
8b	-ste
8a	wohl
=56	=56
8gn	auf
8ccn	der
8b	gan-
8d	-zen
=57	=57
8gn	wei-
8ee	-ten
8dd}	Welt,}
{8b	{und
=58	=58
8.a	auch
16g#	der
8a	An-
8b	-ge-
=a59	=59
4ccn	-nehm-
8b	-ste!
8a	Ist
=60	=60
8gn	a-
8e	-ber
4d	weit,
=61	=61
8gn	weit
8e-	ge-
8d}	-fehlt!}
16r	.
{16d	{In
=62	=62
8.a	mei-
16g#	-nes
8a	Va-
8b-	-ters
=63	=63
4a	Gar-
8gn	-ten
8a	wa2chst
=64	=64
8.b	ei-
16a#	-ne
8b	Blu-
8ccn	-me
=65	=65
(4b	drin:
8a)}	|}
{8b	{so
=66	=66
8.ccn	lang'
16b	will
8a	ich
8b	noch
=67	=67
(8ccn	war-
8b)	|
8a	-ten,
8b	bis
=68	=68
8ccn	die
8b	noch
8cc	gro2s-
8cc#	-ser
=69	=69
(8ee	ist.
8dd	|
8ccn)}	|}
{8a	{Und
=70	=70
12gn	geh'
12b	du
12a	nur
12g	hin!
12r	.
12r	.
=71	=71
12gn	Ich
12b	hab
12a	mein
12g	Theil!
12r	.
12g	Ich
=72	=72
6g#	lieb'
12f#	dich
(12g#	nur
12b)	|
12a	aus
=73	=73
6g#	Nar-
12f#	-re-
6g#}	-thei!}
{12g#	{Ohn'
=74	=74
8g#	dich
8a#	kann
8.b	ich
16cc#	wohl
=75	=75
4b	le-
8a#	-ben,
8b	ohn'
=76	=76
8cc#	dich
8dd#	kann
(16ff#	ich
16ee)	|
(16dd#	wohl
16cc#)	|
=77	=77
4b}	sein!}
4r	.
=78	=78
2r	.
=79	=79
2r	.
=80	=80
2r	.
=81	=81
2r	.
=82	=82
2r	.
=83	=83
2r	.
=84	=84
2r	.
=85	=85
4r	.
8r	.
{8A	{Du
=86	=86
8.d	denkst
16f#	ich
8a	werd'
8dd	dich
=87	=87
8a	neh-
8f#	-men!
8r	.
8a	Das
=88	=88
6dd	hab
12dd	ich
(12dd	lang
12cc#)	|
12dd	noch
=89	=89
8.ee	nicht
16cc#	im
8a}	Sinn!}
{8a	{Ich
=90	=90
8.d	muss
16f#	mich
(16a	dei-
16f#)	|
(16a	-ner
16dd)	|
=91	=91
(8.ff#	scha2-
16ee)	|
8dd}	-men,}
8r	.
=92	=92
2r	.
=93	=93
4r	.
8r	.
{8f#	{ich
=94	=94
8f#	muss
8g#	mich
8.a	dei-
16b	-ner
=95	=95
4a	scha2-
8g#	-men,
16a	wenn
16a	ich
=96	=96
8b	in
8cc#	Ge-
(16ee	-sell-
16dd)	|
(16cc#	-schaft
16b)	|
=97	=97
8a}	bin!}
8r	.
4r	.
=98	=98
2r	.
=99	=99
2r	.
=100	=100
2r	.
=101	=101
2r	.
=102	=102
2r	.
==	==
*-	*-
